X:159
T:Fugatine
O:No159 William Clarke of Feltwell
M:6/8
L:1/8
N:Transcribed by D Dolby/M Humphreys May 2010
N:In m.s. del segno sign at end of B music.Probably should have been D.S and the segno at Bar 1 of the A.
N:In m.s. no repeat mark at end of B music.
K:G
:!segno!D|G2AB2c|d3B2G|A2AE2G|F3DEF|G2AB2c|d3B2g|e2a fef|g3g2:||
:d|ABA A2c|B2dg2g|fef def|g2b dBG|FAFD2c|
B2dg2g|fed ^cde|d3d2^d|e2e EF^G|A2Bc2e|
d2d DEF|G2AB2d|c2BA2G|F2GA2B|AdF AGE|DEC DEF!D.S.!||

